src/img/icons/map.svg

<svg fill="none" height="19" viewBox="0 0 24 19" width="24" xmlns="http://www.w3.org/2000/svg"><path d="m15.75 18.1328-7.5-2.1484v-15.07815l7.5 2.14844zm1.25-15.15624 4.9609-1.992185c.586-.234375 1.2891.195315 1.2891.859375v13.08595c0 .3906-.2344.7422-.625.8594l-5.625 2.2656zm-15.66406.27344 5.66406-2.265625v15.078125l-5 1.9922c-.58594.2344-1.25-.1953-1.25-.8594v-13.08592c0-.39063.195312-.74219.58594-.85938z" fill="#fff"/></svg>

<svg width="24" height="19" viewBox="0 0 24 19" fill="none" xmlns="http://www.w3.org/2000/svg">
<path d="M15.75 18.1328L8.25 15.9844V0.90625L15.75 3.05469V18.1328ZM17 2.97656L21.9609 0.984375C22.5469 0.75 23.25 1.17969 23.25 1.84375V14.9297C23.25 15.3203 23.0156 15.6719 22.625 15.7891L17 18.0547V2.97656ZM1.33594 3.25L7 0.984375V16.0625L2 18.0547C1.41406 18.2891 0.75 17.8594 0.75 17.1953V4.10938C0.75 3.71875 0.945312 3.36719 1.33594 3.25Z" fill="white"/>
</svg>
